X: 21011
T: Julian
R: slide
M: 12/8
K: Gmajor
|:G2g f2d3c Bcd|e2d c2B3G BcB|
A2F G2d3F G2e-|e2G g2f3d cBA:|
|:e2d c2B3G BcB|Add AeA f3 a3|
g2e d2c3B GBc|1 A3 d3 f3 a3:|2 A3 d3 d6||

